Numix-Circle/48x48/apps/doom3.svg

<?xml version="1.0" encoding="UTF-8" standalone="no"?>
<svg
   xmlns:dc="http://purl.org/dc/elements/1.1/"
   xmlns:cc="http://creativecommons.org/ns#"
   xmlns:rdf="http://www.w3.org/1999/02/22-rdf-syntax-ns#"
   xmlns:svg="http://www.w3.org/2000/svg"
   xmlns="http://www.w3.org/2000/svg"
   xmlns:sodipodi="http://sodipodi.sourceforge.net/DTD/sodipodi-0.dtd"
   xmlns:inkscape="http://www.inkscape.org/namespaces/inkscape"
   viewBox="0 0 48 48"
   id="svg2"
   version="1.1"
   inkscape:version="0.48.5 r10040"
   width="100%"
   height="100%"
   sodipodi:docname="doom3.svg">
  <metadata
     id="metadata61">
    <rdf:RDF>
      <cc:Work
         rdf:about="">
        <dc:format>image/svg+xml</dc:format>
        <dc:type
           rdf:resource="http://purl.org/dc/dcmitype/StillImage" />
      </cc:Work>
    </rdf:RDF>
  </metadata>
  <sodipodi:namedview
     pagecolor="#ffffff"
     bordercolor="#666666"
     borderopacity="1"
     objecttolerance="10"
     gridtolerance="10"
     guidetolerance="10"
     inkscape:pageopacity="0"
     inkscape:pageshadow="2"
     inkscape:window-width="1280"
     inkscape:window-height="998"
     id="namedview59"
     showgrid="true"
     inkscape:zoom="3.4766083"
     inkscape:cx="-21.965206"
     inkscape:cy="-4.6031909"
     inkscape:window-x="0"
     inkscape:window-y="0"
     inkscape:window-maximized="1"
     inkscape:current-layer="svg2">
    <inkscape:grid
       type="xygrid"
       id="grid3049" />
  </sodipodi:namedview>
  <defs
     id="defs4">
    <linearGradient
       id="linearGradient3764"
       y1="47"
       x2="0"
       y2="1"
       gradientUnits="userSpaceOnUse">
      <stop
         stop-color="#664e34"
         stop-opacity="1"
         id="stop7" />
      <stop
         offset="1"
         stop-color="#73583b"
         stop-opacity="1"
         id="stop9" />
    </linearGradient>
    <clipPath
       id="clipPath-018382756">
      <g
         transform="translate(0,-1004.3622)"
         id="g12">
        <path
           d="m -24 13 c 0 1.105 -0.672 2 -1.5 2 -0.828 0 -1.5 -0.895 -1.5 -2 0 -1.105 0.672 -2 1.5 -2 0.828 0 1.5 0.895 1.5 2 z"
           transform="matrix(15.333333,0,0,11.5,414.99999,878.8622)"
           fill="#1890d0"
           id="path14" />
      </g>
    </clipPath>
    <clipPath
       id="clipPath-030671416">
      <g
         transform="translate(0,-1004.3622)"
         id="g17">
        <path
           d="m -24 13 c 0 1.105 -0.672 2 -1.5 2 -0.828 0 -1.5 -0.895 -1.5 -2 0 -1.105 0.672 -2 1.5 -2 0.828 0 1.5 0.895 1.5 2 z"
           transform="matrix(15.333333,0,0,11.5,414.99999,878.8622)"
           fill="#1890d0"
           id="path19" />
      </g>
    </clipPath>
    <clipPath
       clipPathUnits="userSpaceOnUse"
       id="clipPath3821">
      <rect
         style="opacity:0.1;fill:#e50914;fill-opacity:1;fill-rule:nonzero;stroke:none"
         id="rect3823"
         width="27.610168"
         height="28.016951"
         x="51.610168"
         y="0.76271182"
         ry="0.6516726" />
    </clipPath>
  </defs>
  <g
     id="g21">
    <path
       d="m 36.31 5 c 5.859 4.062 9.688 10.831 9.688 18.5 c 0 12.426 -10.07 22.5 -22.5 22.5 c -7.669 0 -14.438 -3.828 -18.5 -9.688 c 1.037 1.822 2.306 3.499 3.781 4.969 c 4.085 3.712 9.514 5.969 15.469 5.969 c 12.703 0 23 -10.298 23 -23 c 0 -5.954 -2.256 -11.384 -5.969 -15.469 c -1.469 -1.475 -3.147 -2.744 -4.969 -3.781 z m 4.969 3.781 c 3.854 4.113 6.219 9.637 6.219 15.719 c 0 12.703 -10.297 23 -23 23 c -6.081 0 -11.606 -2.364 -15.719 -6.219 c 4.16 4.144 9.883 6.719 16.219 6.719 c 12.703 0 23 -10.298 23 -23 c 0 -6.335 -2.575 -12.06 -6.719 -16.219 z"
       opacity="0.05"
       id="path23" />
    <path
       d="m 41.28 8.781 c 3.712 4.085 5.969 9.514 5.969 15.469 c 0 12.703 -10.297 23 -23 23 c -5.954 0 -11.384 -2.256 -15.469 -5.969 c 4.113 3.854 9.637 6.219 15.719 6.219 c 12.703 0 23 -10.298 23 -23 c 0 -6.081 -2.364 -11.606 -6.219 -15.719 z"
       opacity="0.1"
       id="path25" />
    <path
       d="m 31.25 2.375 c 8.615 3.154 14.75 11.417 14.75 21.13 c 0 12.426 -10.07 22.5 -22.5 22.5 c -9.708 0 -17.971 -6.135 -21.12 -14.75 a 23 23 0 0 0 44.875 -7 a 23 23 0 0 0 -16 -21.875 z"
       opacity="0.2"
       id="path27" />
  </g>
  <g
     id="g29"
     style="fill:#782305;fill-opacity:1">
    <path
       d="m 24 1 c 12.703 0 23 10.297 23 23 c 0 12.703 -10.297 23 -23 23 -12.703 0 -23 -10.297 -23 -23 0 -12.703 10.297 -23 23 -23 z"
       fill="url(#linearGradient3764)"
       fill-opacity="1"
       id="path31"
       style="fill:#782305;fill-opacity:1" />
  </g>
  <g
     id="g33" />
  <g
     id="g55">
    <path
       d="m 40.03 7.531 c 3.712 4.084 5.969 9.514 5.969 15.469 0 12.703 -10.297 23 -23 23 c -5.954 0 -11.384 -2.256 -15.469 -5.969 4.178 4.291 10.01 6.969 16.469 6.969 c 12.703 0 23 -10.298 23 -23 0 -6.462 -2.677 -12.291 -6.969 -16.469 z"
       opacity="0.1"
       id="path57" />
  </g>
  <path
     id="path3849"
     d="m 25,10 c -8.284271,0 -15,6.715729 -15,15 0,8.284271 6.715729,15 15,15 8.284271,0 15,-6.715729 15,-15 0,-8.284271 -6.715729,-15 -15,-15 z m 0,2 c 2.307761,0 4.465027,0.601727 6.34375,1.65625 L 25,18.0625 18.65625,13.65625 C 20.534973,12.601727 22.692239,12 25,12 z m -7.09375,2.125 c -0.24401,0.1595 -0.486247,0.324834 -0.71875,0.5 0.232594,-0.175166 0.474388,-0.340463 0.71875,-0.5 z m 14.1875,0 c 0.244362,0.159537 0.486156,0.324834 0.71875,0.5 -0.232503,-0.175166 -0.47474,-0.3405 -0.71875,-0.5 z M 17.875,15.5 l 5.40625,3.75 -3.375,2.34375 L 17.875,15.5 z m 14.25,0 -2.03125,6.09375 L 26.71875,19.25 32.125,15.5 z m -16.25,0.25 2.34375,7.03125 L 12.15625,27 C 12.056069,26.349587 12,25.678455 12,25 c 0,-3.621862 1.485381,-6.892678 3.875,-9.25 z m 18.25,0 C 36.514619,18.107322 38,21.378138 38,25 c 0,0.678455 -0.05607,1.349587 -0.15625,2 L 31.78125,22.78125 34.125,15.75 z M 25,20.46875 29.4375,23.5625 27.96875,28 22.03125,28 20.5625,23.5625 25,20.46875 z m -6.125,4.25 L 19.96875,28 14.15625,28 18.875,24.71875 z m 12.25,0 L 35.84375,28 30.03125,28 31.125,24.71875 z m -18.96875,2.3125 c 0.08024,0.512789 0.205117,1.009147 0.34375,1.5 0.114365,0.40493 0.254799,0.79953 0.40625,1.1875 -0.151563,-0.388728 -0.292065,-0.781638 -0.40625,-1.1875 -0.137759,-0.489653 -0.263747,-0.98876 -0.34375,-1.5 z m 25.6875,0 c -0.08,0.51124 -0.205991,1.010347 -0.34375,1.5 -0.114185,0.405862 -0.254687,0.798772 -0.40625,1.1875 0.151451,-0.38797 0.291885,-0.78257 0.40625,-1.1875 0.138633,-0.490853 0.263505,-0.987211 0.34375,-1.5 z M 13,30 l 7.625,0 2.625,7.875 c 0.233706,0.03132 0.479966,0.04196 0.71875,0.0625 C 23.72702,37.918666 23.487838,37.906877 23.25,37.875 18.602291,37.252076 14.744177,34.186347 13,30 z m 9.71875,0 4.5625,0 L 25,36.875 22.71875,30 z M 29.375,30 37,30 c -1.744177,4.186347 -5.602291,7.252076 -10.25,7.875 -0.237838,0.03188 -0.47702,0.04367 -0.71875,0.0625 0.238784,-0.02054 0.485044,-0.03118 0.71875,-0.0625 L 29.375,30 z"
     style="fill:#000000;fill-opacity:1;stroke:none;opacity:0.1"
     inkscape:connector-curvature="0" />
  <path
     style="fill:#dc7d41;stroke:none;fill-opacity:1"
     d="M 24 9 C 15.715729 9 9 15.715729 9 24 C 9 32.284271 15.715729 39 24 39 C 32.284271 39 39 32.284271 39 24 C 39 15.715729 32.284271 9 24 9 z M 24 11 C 26.307761 11 28.465027 11.601727 30.34375 12.65625 L 24 17.0625 L 17.65625 12.65625 C 19.534973 11.601727 21.692239 11 24 11 z M 16.90625 13.125 C 16.66224 13.2845 16.420003 13.449834 16.1875 13.625 C 16.420094 13.449834 16.661888 13.284537 16.90625 13.125 z M 31.09375 13.125 C 31.338112 13.284537 31.579906 13.449834 31.8125 13.625 C 31.579997 13.449834 31.33776 13.2845 31.09375 13.125 z M 16.875 14.5 L 22.28125 18.25 L 18.90625 20.59375 L 16.875 14.5 z M 31.125 14.5 L 29.09375 20.59375 L 25.71875 18.25 L 31.125 14.5 z M 14.875 14.75 L 17.21875 21.78125 L 11.15625 26 C 11.056069 25.349587 11 24.678455 11 24 C 11 20.378138 12.485381 17.107322 14.875 14.75 z M 33.125 14.75 C 35.514619 17.107322 37 20.378138 37 24 C 37 24.678455 36.943931 25.349587 36.84375 26 L 30.78125 21.78125 L 33.125 14.75 z M 24 19.46875 L 28.4375 22.5625 L 26.96875 27 L 21.03125 27 L 19.5625 22.5625 L 24 19.46875 z M 17.875 23.71875 L 18.96875 27 L 13.15625 27 L 17.875 23.71875 z M 30.125 23.71875 L 34.84375 27 L 29.03125 27 L 30.125 23.71875 z M 11.15625 26.03125 C 11.236495 26.544039 11.361367 27.040397 11.5 27.53125 C 11.614365 27.93618 11.754799 28.33078 11.90625 28.71875 C 11.754687 28.330022 11.614185 27.937112 11.5 27.53125 C 11.362241 27.041597 11.236253 26.54249 11.15625 26.03125 z M 36.84375 26.03125 C 36.763747 26.54249 36.637759 27.041597 36.5 27.53125 C 36.385815 27.937112 36.245313 28.330022 36.09375 28.71875 C 36.245201 28.33078 36.385635 27.93618 36.5 27.53125 C 36.638633 27.040397 36.763505 26.544039 36.84375 26.03125 z M 12 29 L 19.625 29 L 22.25 36.875 C 22.483706 36.906323 22.729966 36.916961 22.96875 36.9375 C 22.72702 36.918666 22.487838 36.906877 22.25 36.875 C 17.602291 36.252076 13.744177 33.186347 12 29 z M 21.71875 29 L 26.28125 29 L 24 35.875 L 21.71875 29 z M 28.375 29 L 36 29 C 34.255823 33.186347 30.397709 36.252076 25.75 36.875 C 25.512162 36.906877 25.27298 36.918666 25.03125 36.9375 C 25.270034 36.916961 25.516294 36.906324 25.75 36.875 L 28.375 29 z "
     id="path3833" />
</svg>

<svg xmlns="http://www.w3.org/2000/svg" viewBox="0 0 48 48">
 <g>
  <path d="m 36.31 5 c 5.859 4.062 9.688 10.831 9.688 18.5 c 0 12.426 -10.07 22.5 -22.5 22.5 c -7.669 0 -14.438 -3.828 -18.5 -9.688 c 1.037 1.822 2.306 3.499 3.781 4.969 c 4.085 3.712 9.514 5.969 15.469 5.969 c 12.703 0 23 -10.298 23 -23 c 0 -5.954 -2.256 -11.384 -5.969 -15.469 c -1.469 -1.475 -3.147 -2.744 -4.969 -3.781 z m 4.969 3.781 c 3.854 4.113 6.219 9.637 6.219 15.719 c 0 12.703 -10.297 23 -23 23 c -6.081 0 -11.606 -2.364 -15.719 -6.219 c 4.16 4.144 9.883 6.719 16.219 6.719 c 12.703 0 23 -10.298 23 -23 c 0 -6.335 -2.575 -12.06 -6.719 -16.219 z" style="opacity:0.05"/>
  <path d="m 41.28 8.781 c 3.712 4.085 5.969 9.514 5.969 15.469 c 0 12.703 -10.297 23 -23 23 c -5.954 0 -11.384 -2.256 -15.469 -5.969 c 4.113 3.854 9.637 6.219 15.719 6.219 c 12.703 0 23 -10.298 23 -23 c 0 -6.081 -2.364 -11.606 -6.219 -15.719 z" style="opacity:0.1"/>
  <path d="m 31.25 2.375 c 8.615 3.154 14.75 11.417 14.75 21.13 c 0 12.426 -10.07 22.5 -22.5 22.5 c -9.708 0 -17.971 -6.135 -21.12 -14.75 a 23 23 0 0 0 44.875 -7 a 23 23 0 0 0 -16 -21.875 z" style="opacity:0.2"/>
 </g>
 <g style="fill:#782305;fill-opacity:1">
  <path d="m 24 1 c 12.703 0 23 10.297 23 23 c 0 12.703 -10.297 23 -23 23 -12.703 0 -23 -10.297 -23 -23 0 -12.703 10.297 -23 23 -23 z"/>
 </g>
 <g>
  <path d="m 40.03 7.531 c 3.712 4.084 5.969 9.514 5.969 15.469 0 12.703 -10.297 23 -23 23 c -5.954 0 -11.384 -2.256 -15.469 -5.969 4.178 4.291 10.01 6.969 16.469 6.969 c 12.703 0 23 -10.298 23 -23 0 -6.462 -2.677 -12.291 -6.969 -16.469 z" style="opacity:0.1"/>
 </g>
 <path d="m 25 10 c -8.284 0 -15 6.716 -15 15 0 8.284 6.716 15 15 15 8.284 0 15 -6.716 15 -15 0 -8.284 -6.716 -15 -15 -15 z m 0 2 c 2.308 0 4.465 0.602 6.344 1.656 l -6.344 4.406 -6.344 -4.406 c 1.879 -1.055 4.04 -1.656 6.344 -1.656 z m -7.094 2.125 c -0.244 0.159 -0.486 0.325 -0.719 0.5 0.233 -0.175 0.474 -0.34 0.719 -0.5 z m 14.188 0 c 0.244 0.16 0.486 0.325 0.719 0.5 -0.233 -0.175 -0.475 -0.341 -0.719 -0.5 z m -14.219 1.375 l 5.406 3.75 -3.375 2.344 l -2.031 -6.094 z m 14.25 0 -2.031 6.094 l -3.375 -2.344 5.406 -3.75 z m -16.25 0.25 2.344 7.03 l -6.06 4.219 c -0.1 -0.65 -0.156 -1.322 -0.156 -2 c 0 -3.622 1.485 -6.893 3.875 -9.25 z m 18.25 0 c 2.39 2.357 3.875 5.628 3.875 9.25 c 0 0.678 -0.056 1.35 -0.156 2 l -6.06 -4.219 2.344 -7.03 z m -9.125 4.719 4.438 3.094 -1.469 4.438 -5.938 0 -1.469 -4.438 4.438 -3.094 z m -6.125 4.25 l 1.094 3.281 -5.813 0 4.719 -3.281 z m 12.25 0 l 4.719 3.281 -5.813 0 1.094 -3.281 z m -18.969 2.313 c 0.08 0.513 0.205 1.01 0.344 1.5 0.114 0.405 0.255 0.8 0.406 1.188 -0.152 -0.389 -0.292 -0.782 -0.406 -1.188 -0.138 -0.49 -0.264 -0.989 -0.344 -1.5 z m 25.688 0 c -0.08 0.511 -0.206 1.01 -0.344 1.5 -0.114 0.406 -0.255 0.799 -0.406 1.188 0.151 -0.388 0.292 -0.783 0.406 -1.188 0.139 -0.491 0.264 -0.987 0.344 -1.5 z m -24.844 2.969 l 7.625 0 2.625 7.875 c 0.234 0.031 0.48 0.042 0.719 0.063 c -0.242 -0.019 -0.481 -0.031 -0.719 -0.063 -4.648 -0.623 -8.506 -3.689 -10.25 -7.875 z m 9.719 0 4.563 0 l -2.281 6.875 -2.281 -6.875 z m 6.656 0 7.625 0 c -1.744 4.186 -5.602 7.252 -10.25 7.875 -0.238 0.032 -0.477 0.044 -0.719 0.063 0.239 -0.021 0.485 -0.031 0.719 -0.063 l 2.625 -7.875 z" style="fill:#000;opacity:0.1;fill-opacity:1;stroke:none"/>
 <path d="m 24 9 c -8.284 0 -15 6.716 -15 15 c 0 8.284 6.716 15 15 15 c 8.284 0 15 -6.716 15 -15 c 0 -8.284 -6.716 -15 -15 -15 z m 0 2 c 2.308 0 4.465 0.602 6.344 1.656 l -6.344 4.406 l -6.344 -4.406 c 1.879 -1.055 4.04 -1.656 6.344 -1.656 z m -7.094 2.125 c -0.244 0.159 -0.486 0.325 -0.719 0.5 c 0.233 -0.175 0.474 -0.34 0.719 -0.5 z m 14.188 0 c 0.244 0.16 0.486 0.325 0.719 0.5 c -0.233 -0.175 -0.475 -0.341 -0.719 -0.5 z m -14.219 1.375 l 5.406 3.75 l -3.375 2.344 l -2.031 -6.094 z m 14.25 0 l -2.031 6.094 l -3.375 -2.344 l 5.406 -3.75 z m -16.25 0.25 l 2.344 7.03 l -6.06 4.219 c -0.1 -0.65 -0.156 -1.322 -0.156 -2 c 0 -3.622 1.485 -6.893 3.875 -9.25 z m 18.25 0 c 2.39 2.357 3.875 5.628 3.875 9.25 c 0 0.678 -0.056 1.35 -0.156 2 l -6.06 -4.219 l 2.344 -7.03 z m -9.125 4.719 l 4.438 3.094 l -1.469 4.438 l -5.938 0 l -1.469 -4.438 l 4.438 -3.094 z m -6.125 4.25 l 1.094 3.281 l -5.813 0 l 4.719 -3.281 z m 12.25 0 l 4.719 3.281 l -5.813 0 l 1.094 -3.281 z m -18.969 2.313 c 0.08 0.513 0.205 1.01 0.344 1.5 c 0.114 0.405 0.255 0.8 0.406 1.188 c -0.152 -0.389 -0.292 -0.782 -0.406 -1.188 c -0.138 -0.49 -0.264 -0.989 -0.344 -1.5 z m 25.688 0 c -0.08 0.511 -0.206 1.01 -0.344 1.5 c -0.114 0.406 -0.255 0.799 -0.406 1.188 c 0.151 -0.388 0.292 -0.783 0.406 -1.188 c 0.139 -0.491 0.264 -0.987 0.344 -1.5 z m -24.844 2.969 l 7.625 0 l 2.625 7.875 c 0.234 0.031 0.48 0.042 0.719 0.063 c -0.242 -0.019 -0.481 -0.031 -0.719 -0.063 c -4.648 -0.623 -8.506 -3.689 -10.25 -7.875 z m 9.719 0 l 4.563 0 l -2.281 6.875 l -2.281 -6.875 z m 6.656 0 l 7.625 0 c -1.744 4.186 -5.602 7.252 -10.25 7.875 c -0.238 0.032 -0.477 0.044 -0.719 0.063 c 0.239 -0.021 0.485 -0.031 0.719 -0.063 l 2.625 -7.875 z" style="fill:#dc7d41;fill-opacity:1;stroke:none"/>
</svg>
